src/assets/img/calendar.svg

<?xml version="1.0" standalone="no"?>
<!DOCTYPE svg PUBLIC "-//W3C//DTD SVG 1.0//EN" "http://www.w3.org/TR/2001/REC-SVG-20010904/DTD/svg10.dtd">
<svg xmlns="http://www.w3.org/2000/svg" xmlns:xlink="http://www.w3.org/1999/xlink" id="body_1" width="50" height="50">

<g transform="matrix(0.052083336 0 0 0.052083336 -0 -5)">
    <path d="M480 656C 468.6667 656 459.1667 652.1667 451.5 644.5C 446.3889 639.3889 442.55554 629.8889 440 616C 440 604.6667 443.83334 595.1667 451.5 587.5C 456.6111 582.3889 466.1111 578.55554 480 576C 491.33334 576 500.83334 579.8334 508.5 587.5C 513.6111 592.6111 517.44446 602.1111 520 616C 520 627.3334 516.1667 636.8334 508.5 644.5C 503.3889 649.6111 493.8889 653.44446 480 656zM320 656C 308.6667 656 299.1667 652.1667 291.5 644.5C 286.3889 639.3889 282.55554 629.8889 280 616C 280 604.6667 283.83334 595.1667 291.5 587.5C 296.6111 582.3889 306.1111 578.55554 320 576C 331.33334 576 340.83334 579.8334 348.5 587.5C 353.6111 592.6111 357.44446 602.1111 360 616C 360 627.3334 356.1667 636.8334 348.5 644.5C 343.3889 649.6111 333.8889 653.44446 320 656zM640 656C 628.6667 656 619.1667 652.1667 611.5 644.5C 606.3889 639.3889 602.55554 629.8889 600 616C 600 604.6667 603.8334 595.1667 611.5 587.5C 616.6111 582.3889 626.1111 578.55554 640 576C 651.3334 576 660.8334 579.8334 668.5 587.5C 673.6111 592.6111 677.44446 602.1111 680 616C 680 627.3334 676.1667 636.8334 668.5 644.5C 663.3889 649.6111 653.8889 653.44446 640 656zM480 816C 468.6667 816 459.1667 812.1667 451.5 804.5C 446.3889 799.3889 442.55554 789.8889 440 776C 440 764.6667 443.83334 755.1667 451.5 747.5C 456.6111 742.3889 466.1111 738.55554 480 736C 491.33334 736 500.83334 739.8334 508.5 747.5C 513.6111 752.6111 517.44446 762.1111 520 776C 520 787.3334 516.1667 796.8334 508.5 804.5C 503.3889 809.61115 493.8889 813.44446 480 816zM320 816C 308.6667 816 299.1667 812.1667 291.5 804.5C 286.3889 799.3889 282.55554 789.8889 280 776C 280 764.6667 283.83334 755.1667 291.5 747.5C 296.6111 742.3889 306.1111 738.55554 320 736C 331.33334 736 340.83334 739.8334 348.5 747.5C 353.6111 752.6111 357.44446 762.1111 360 776C 360 787.3334 356.1667 796.8334 348.5 804.5C 343.3889 809.61115 333.8889 813.44446 320 816zM640 816C 628.6667 816 619.1667 812.1667 611.5 804.5C 606.3889 799.3889 602.55554 789.8889 600 776C 600 764.6667 603.8334 755.1667 611.5 747.5C 616.6111 742.3889 626.1111 738.55554 640 736C 651.3334 736 660.8334 739.8334 668.5 747.5C 673.6111 752.6111 677.44446 762.1111 680 776C 680 787.3334 676.1667 796.8334 668.5 804.5C 663.3889 809.61115 653.8889 813.44446 640 816zM180 976C 164 976 150 970 138 958C 130 950 124 936 120 916L120 916L120 296C 120 280 126 266 138 254C 146 246.00002 160 240.00002 180 236L180 236L245 236L245 176L310 176L310 236L650 236L650 176L715 176L715 236L780 236C 796 236.00002 810 242.00002 822 254C 830 262 836 276 840 296L840 296L840 916C 840 932 834 946 822 958C 814 966 800 972 780 976L780 976L180 976zM180 916L780 916L780 486L180 486L180 916z" stroke="none" fill="#000000" fill-rule="nonzero" />
</g>
</svg>

<svg xmlns="http://www.w3.org/2000/svg" height="48" viewBox="0 96 960 960" width="48"><path d="M480 656q-17 0-28.5-11.5T440 616q0-17 11.5-28.5T480 576q17 0 28.5 11.5T520 616q0 17-11.5 28.5T480 656Zm-160 0q-17 0-28.5-11.5T280 616q0-17 11.5-28.5T320 576q17 0 28.5 11.5T360 616q0 17-11.5 28.5T320 656Zm320 0q-17 0-28.5-11.5T600 616q0-17 11.5-28.5T640 576q17 0 28.5 11.5T680 616q0 17-11.5 28.5T640 656ZM480 816q-17 0-28.5-11.5T440 776q0-17 11.5-28.5T480 736q17 0 28.5 11.5T520 776q0 17-11.5 28.5T480 816Zm-160 0q-17 0-28.5-11.5T280 776q0-17 11.5-28.5T320 736q17 0 28.5 11.5T360 776q0 17-11.5 28.5T320 816Zm320 0q-17 0-28.5-11.5T600 776q0-17 11.5-28.5T640 736q17 0 28.5 11.5T680 776q0 17-11.5 28.5T640 816ZM180 976q-24 0-42-18t-18-42V296q0-24 18-42t42-18h65v-60h65v60h340v-60h65v60h65q24 0 42 18t18 42v620q0 24-18 42t-42 18H180Zm0-60h600V486H180v430Z"/></svg>
